X: 1
T: the Lass of Corries Mill
%D:
R: strathspey
S: Fiddle Hell Online 2022-4-8 handout for Alasdair Fraser workshop
Z: 2022 John Chambers <jc:trillian.mit.edu>
M: 4/4
L: 1/8
K: F
[|\
"F"F>G A>F "C"E<G "F"F2 | "F"A<F c>B "/A"A<c c2 | "Bb"d>f "F/A"c>f "Gm"B>f "F"A>f | "F"(3agf (3efd "C"(3cdB (3ABG |
"F"F>G A>F "C"E<G "F"F2 | "Dm"A<F c>B A<c c2 | "Bb"d>f "F/A"c>f "Gm"B>f "F"A>f | "C"(3agf (3efA "F"A<F F2 ||
"F"A>B c>B A<f f2 | "A"e>f g>e "Dm"f<a a2 | "Gm"b>g "F/A"a>f "Bb"g>e "G7/B"f>g | "F/C"(3agf (3efd "C"cdB (3ABG |
"F"A>B c>B A<f f2 | "A"e>f g>e "Dm"f<a a2 | "Gm"b>g "F/A"a>f "Bb"g>e "G7/B"f>g | "C"(3agf (3efg "F"a<f f2 |]
